tools/download-figma-icons/icons/solid/wind-power.svg

<svg width="24" height="24" viewBox="0 0 24 24" fill="none" xmlns="http://www.w3.org/2000/svg">
<path fill-rule="evenodd" clip-rule="evenodd" d="M12.2906 13.6798C11.6464 13.6798 11.1207 13.1549 11.1207 12.5099C11.1207 11.8649 11.6464 11.3399 12.2906 11.3399C12.9281 11.3399 13.4531 11.8649 13.4531 12.5099C13.4531 13.1549 12.9281 13.6798 12.2906 13.6798ZM22.768 17.1223C24.403 13.4106 23.968 9.11991 21.5681 5.79744C21.3281 5.45994 20.8631 5.38495 20.5256 5.63319C20.1881 5.87244 20.1131 6.33744 20.3531 6.67493C22.348 9.4349 22.783 12.9599 21.5756 16.0873L20.2713 14.9548C20.6531 13.7024 20.7506 12.3831 20.5256 11.0849C20.4588 10.6799 20.0681 10.4106 19.6631 10.4774C19.2506 10.5524 18.9806 10.9349 19.0481 11.3481C19.1981 12.1799 19.1756 13.0356 19.0106 13.8599L17.1806 12.2774C17.0906 12.1874 16.9706 12.1349 16.8431 12.1049L14.8106 11.6931C14.6906 11.3181 14.4956 10.9874 14.2406 10.7024V0.749992C14.2406 0.329997 13.9031 0 13.4906 0H11.8782C11.5182 0 11.2114 0.255747 11.1432 0.607494L11.0382 1.13324C7.0032 1.56823 3.50824 4.08746 1.8365 7.82992C1.66326 8.20492 1.8365 8.64741 2.2115 8.82066C2.30825 8.86491 2.41325 8.88741 2.51825 8.88741C2.80324 8.88741 3.08074 8.72316 3.20074 8.43742C4.59573 5.33245 7.4307 3.19572 10.7382 2.68497L10.4082 4.38071C9.14068 4.67245 7.94069 5.24245 6.9357 6.08244C6.62071 6.34494 6.57571 6.81818 6.8382 7.13993C6.9882 7.32068 7.1982 7.41068 7.4157 7.41068C7.58819 7.41068 7.75319 7.35068 7.89644 7.23743C8.54819 6.69068 9.29818 6.28569 10.0932 6.01494L9.63567 8.38492C9.61317 8.51241 9.62067 8.63991 9.65817 8.76741L10.3107 10.7324C10.0632 11.0174 9.86817 11.3481 9.75567 11.7231L1.12326 16.7023C0.763265 16.9048 0.643266 17.3698 0.853264 17.7231L1.65576 19.1173C1.79075 19.3573 2.04575 19.4923 2.30825 19.4923C2.38325 19.4923 2.46575 19.4848 2.54825 19.4548L3.05074 19.2823C5.21822 22.2373 8.63068 23.9623 12.2756 23.9623C12.6656 23.9623 13.0631 23.9473 13.4614 23.9023C13.8731 23.8648 14.1731 23.4973 14.1281 23.0848C14.0839 22.6723 13.7089 22.3805 13.3031 22.4105C9.91317 22.7555 6.6507 21.3748 4.55073 18.7648L6.17821 18.2023C7.0707 19.1548 8.16569 19.9048 9.39643 20.3623C9.48568 20.3923 9.56818 20.4073 9.65817 20.4073C9.95892 20.4073 10.2507 20.2198 10.3632 19.913C10.5057 19.5223 10.3032 19.0948 9.91317 18.9523C9.11818 18.6606 8.39069 18.2098 7.76069 17.6548L10.0407 16.8673C10.1682 16.8298 10.2739 16.7556 10.3632 16.6573L11.7282 15.1123C11.9082 15.1573 12.0956 15.1798 12.2906 15.1798C12.4931 15.1798 12.6881 15.1498 12.8756 15.1048L21.5006 20.0848C21.6131 20.1448 21.7406 20.1823 21.8755 20.1823C21.9355 20.1823 22.003 20.1748 22.0705 20.1605C22.258 20.1073 22.423 19.9798 22.5213 19.8073L23.3305 18.4131C23.5105 18.1048 23.443 17.7073 23.173 17.4756L22.768 17.1223Z" fill="black"/>
</svg>

<svg width="24" height="24" viewBox="0 0 24 24" fill="none" xmlns="http://www.w3.org/2000/svg"><path fill-rule="evenodd" clip-rule="evenodd" d="M12.29 13.68c-.644 0-1.17-.525-1.17-1.17 0-.645.526-1.17 1.17-1.17a1.17 1.17 0 0 1 0 2.34Zm10.478 3.442a11.425 11.425 0 0 0-1.2-11.325.737.737 0 0 0-1.042-.164.744.744 0 0 0-.173 1.042 9.921 9.921 0 0 1 1.223 9.412l-1.305-1.132a8.353 8.353 0 0 0 .255-3.87.748.748 0 0 0-.863-.608.755.755 0 0 0-.615.871c.15.832.128 1.688-.037 2.512l-1.83-1.583a.692.692 0 0 0-.338-.172l-2.032-.412a2.72 2.72 0 0 0-.57-.99V.75c0-.42-.338-.75-.75-.75h-1.613a.749.749 0 0 0-.735.607l-.105.526A11.383 11.383 0 0 0 1.837 7.83a.75.75 0 0 0 .681 1.057.738.738 0 0 0 .683-.45 9.904 9.904 0 0 1 7.537-5.752l-.33 1.696a8.315 8.315 0 0 0-3.472 1.701.756.756 0 0 0-.098 1.058c.15.18.36.27.578.27a.77.77 0 0 0 .48-.173 6.836 6.836 0 0 1 2.197-1.222l-.457 2.37a.828.828 0 0 0 .022.382l.653 1.965a2.687 2.687 0 0 0-.555.991l-8.633 4.98a.74.74 0 0 0-.27 1.02l.803 1.394c.135.24.39.375.652.375a.695.695 0 0 0 .24-.037l.503-.173a11.415 11.415 0 0 0 9.225 4.68c.39 0 .787-.015 1.185-.06a.739.739 0 0 0 .667-.817.77.77 0 0 0-.825-.675 9.9 9.9 0 0 1-8.752-3.645l1.627-.563a8.465 8.465 0 0 0 3.218 2.16.755.755 0 0 0 .967-.45.749.749 0 0 0-.45-.96 6.836 6.836 0 0 1-2.152-1.297l2.28-.788a.701.701 0 0 0 .322-.21l1.365-1.545a2.31 2.31 0 0 0 1.148-.007l8.625 4.98a.797.797 0 0 0 .57.075.762.762 0 0 0 .45-.353l.81-1.394a.746.746 0 0 0-.158-.937l-.405-.354Z" fill="currentColor"/></svg>
